static/images/clients/svg/firstprinciple-white.svg

<svg fill="none" height="25" viewBox="0 0 161 25" width="161" xmlns="http://www.w3.org/2000/svg"><g fill="#fff"><path d="m11.981.878976v2.088104h-9.09251v6.62115h7.77091v2.08807h-7.77091v8.141h-2.577089v-18.938324zm4.9427 5.550664v13.38766h-2.3524v-13.38766zm.5287-4.20265c0 .22908-.0463.44273-.1388.64097s-.2159.37445-.37.52864c-.1542.15418-.3326.27533-.5353.36343-.2026.08811-.4185.13216-.6476.13216-.229 0-.4427-.04405-.6409-.13216-.1983-.0881-.3745-.20925-.5287-.36343-.1541-.15419-.2753-.3304-.3634-.52864s-.1322-.41189-.1322-.64097c0-.22907.0441-.44713.1322-.65418s.2093-.38767.3634-.54185c.1542-.154187.3304-.275331.5287-.363438.1982-.088106.4119-.132158.6409-.132158.2291 0 .445.044052.6476.132158.2027.088107.3811.209251.5353.363438.1541.15418.2775.3348.37.54185s.1388.42511.1388.65418zm3.0264 17.59031v-13.38766h1.348c.2555 0 .4317.04845.5287.14537.0969.09692.1629.26432.1982.5022l.1586 2.08811c.4581-.93393 1.0242-1.66299 1.6982-2.18723.674-.52423 1.4648-.78634 2.3723-.78634.37 0 .7048.04185 1.0044.12555.2995.0837.5771.20044.8326.35022l-.304 1.75771c-.0617.22027-.1982.3304-.4097.3304-.1233 0-.3128-.04185-.5683-.12555s-.6123-.12555-1.0705-.12555c-.8193 0-1.5044.23788-2.055.71365-.5507.47578-1.011 1.16742-1.3811 2.07492v8.5242zm17.7225-11.18061c-.1058.19383-.2688.29074-.489.29074-.1322 0-.282-.04845-.4494-.14537s-.3722-.20485-.6145-.32379-.5308-.22907-.8656-.33039c-.3348-.10133-.7313-.15199-1.1895-.15199-.3964 0-.7533.05066-1.0704.15199-.3172.10132-.5882.24008-.8128.41629-.2247.17622-.3965.38106-.5154.61454-.119.23348-.1785.48678-.1785.75991 0 .34358.0992.62998.2974.85908.1982.229.4604.4273.7863.5947.326.1674.6961.3149 1.1102.4427s.8392.2643 1.2753.4097.8612.3062 1.2753.4824.7842.3964 1.1102.6608c.326.2643.5881.5881.7863.9713.1983.3833.2974.8436.2974 1.3811 0 .6167-.1102 1.1872-.3304 1.7114-.2203.5243-.5463.978-.978 1.3613-.4317.3832-.9603.685-1.5859.9053-.6256.2202-1.348.3304-2.1674.3304-.9339 0-1.7797-.152-2.5374-.456-.7578-.304-1.4009-.6938-1.9296-1.1696l.5551-.8987c.0705-.1145.1542-.2026.2511-.2643s.2247-.0925.3833-.0925.326.0617.5022.185c.1762.1234.3898.2599.6409.4097s.5551.2864.9119.4097c.3569.1234.804.185 1.3414.185.4582 0 .8591-.0594 1.2027-.1784.3436-.1189.6299-.2797.859-.4824.2291-.2026.3987-.4361.5088-.7004.1102-.2643.1652-.5463.1652-.8458 0-.3701-.0991-.6762-.2973-.9185-.1983-.2423-.4604-.4494-.7864-.6212s-.6982-.3216-1.1167-.4493c-.4185-.1278-.8458-.2621-1.282-.4031-.4361-.141-.8634-.3018-1.2819-.4824s-.7907-.4075-1.1167-.6806-.5881-.6101-.7864-1.011c-.1982-.4009-.2973-.8877-.2973-1.4604 0-.51097.1057-1.00215.3171-1.47352.2115-.47137.5199-.88546.9252-1.24229.4052-.35683.903-.64097 1.4934-.85243.5903-.21145 1.2643-.31718 2.022-.31718.881 0 1.6718.13877 2.3722.4163.7005.27754 1.3062.65859 1.8172 1.14317zm7.2687 11.39211c-1.0573 0-1.87-.2952-2.4383-.8855s-.8525-1.4405-.8525-2.5507v-8.1938h-1.6123c-.141 0-.2599-.04185-.3568-.12555s-.1454-.21366-.1454-.38987v-.93832l2.1938-.27754.5419-4.13656c.0176-.13216.0749-.24009.1718-.32379s.2203-.12555.37-.12555h1.1895v4.61233h3.8326v1.70485h-3.8326v8.0352c0 .5639.1365.9824.4097 1.2555.2731.2732.6255.4097 1.0572.4097.2467 0 .4604-.033.641-.0991s.337-.1387.4692-.218c.1321-.0793.2445-.152.337-.2181s.174-.0991.2445-.0991c.1233 0 .2334.0749.3304.2246l.6872 1.1234c-.4053.3789-.8943.6762-1.467.8921-.5727.2158-1.163.3238-1.7709.3238zm12.8987-7.2952v7.0837h-2.5507v-18.938324h5.5903c1.1983 0 2.2401.138764 3.1256.416304.8854.27753 1.6189.6718 2.2004 1.18282.5815.51101 1.0154 1.12774 1.3018 1.85022.2863.72247.4295 1.52863.4295 2.4185 0 .88106-.1542 1.68722-.4626 2.4185-.3083.73128-.7599 1.36128-1.3546 1.88988s-1.3326.9405-2.2137 1.2357c-.881.2951-1.8898.4427-3.0264.4427zm0-2.0352h3.0396c.7313 0 1.3767-.097 1.9361-.2908.5595-.1938 1.0287-.46475 1.4075-.81277.3789-.34801.6652-.76431.8591-1.24889.1938-.48459.2907-1.01762.2907-1.59912 0-1.20706-.3722-2.14978-1.1167-2.8282-.7445-.67841-1.8701-1.01762-3.3767-1.01762h-3.0396zm12.37 9.1189v-13.38766h1.348c.2555 0 .4317.04845.5287.14537.0969.09692.163.26432.1982.5022l.1586 2.08811c.4581-.93393 1.0242-1.66299 1.6982-2.18723.674-.52423 1.4648-.78634 2.3723-.78634.37 0 .7048.04185 1.0044.12555.2995.0837.5771.20044.8326.35022l-.304 1.75771c-.0617.22027-.1982.3304-.4097.3304-.1233 0-.3127-.04185-.5683-.12555-.2555-.0837-.6123-.12555-1.0704-.12555-.8194 0-1.5044.23788-2.0551.71365-.5507.47578-1.011 1.16742-1.3811 2.07492v8.5242zm12.674-13.38766v13.38766h-2.3524v-13.38766zm.5287-4.20265c0 .22908-.0463.44273-.1388.64097s-.2159.37445-.3701.52864c-.1541.15418-.3325.27533-.5352.36343-.2026.08811-.4185.13216-.6476.13216-.229 0-.4427-.04405-.6409-.13216-.1983-.0881-.3745-.20925-.5287-.36343-.1542-.15419-.2753-.3304-.3634-.52864s-.1322-.41189-.1322-.64097c0-.22907.0441-.44713.1322-.65418s.2092-.38767.3634-.54185c.1542-.154187.3304-.275331.5287-.363438.1982-.088106.4119-.132158.6409-.132158.2291 0 .445.044052.6476.132158.2027.088107.3811.209251.5352.363438.1542.15418.2776.3348.3701.54185s.1388.42511.1388.65418zm3.0264 17.59031v-13.38766h1.4009c.3348 0 .5462.16299.6343.48898l.1851 1.45375c.5815-.64318 1.2312-1.163 1.9493-1.55947.7181-.39648 1.5484-.59472 2.4912-.59472.7313 0 1.3766.12115 1.9361.36344s1.0264.5859 1.4009 1.03084c.3744.44493.6586.98017.8524 1.60572.1938.62556.2908 1.31722.2908 2.07492v8.5242h-2.3525v-8.5242c0-1.0132-.2312-1.79958-.6938-2.35906-.4626-.55947-1.1696-.8392-2.1211-.8392-.6961 0-1.3459.16739-1.9494.5022-.6035.3348-1.1608.78854-1.6718 1.36123v9.85903zm23.2332-11.00881c-.07.09692-.141.17181-.211.22467-.071.05287-.172.0793-.304.0793s-.275-.05507-.43-.1652c-.154-.11013-.35-.23128-.588-.36344s-.526-.2533-.865-.36343c-.34-.11014-.756-.1652-1.249-.1652-.652 0-1.229.11674-1.732.35022-.502.23348-.922.57048-1.262 1.01101-.339.44053-.594.97358-.766 1.59908-.172.6256-.258 1.326-.258 2.1014 0 .8105.093 1.5308.278 2.1608.185.6299.445 1.1585.779 1.5859.335.4273.743.7533 1.223.9779.48.2247 1.02.337 1.619.337.572 0 1.044-.0682 1.414-.2048s.678-.2886.925-.456.449-.3193.608-.4559c.158-.1366.317-.2049.476-.2049.202 0 .352.0749.449.2247l.661.8591c-.582.7136-1.309 1.2356-2.181 1.566s-1.793.4956-2.762.4956c-.837 0-1.614-.1542-2.333-.4625-.718-.3084-1.341-.7555-1.87-1.3414-.528-.5859-.945-1.3062-1.248-2.1608-.304-.8547-.456-1.8282-.456-2.9207 0-.9956.138-1.9163.416-2.7622.277-.84577.683-1.57484 1.216-2.18718s1.191-1.0903 1.975-1.43392c.785-.34361 1.683-.51542 2.697-.51542.933 0 1.762.15198 2.484.45595.723.30397 1.361.73348 1.916 1.28855zm5.234-2.37885v13.38766h-2.353v-13.38766zm.528-4.20265c0 .22908-.046.44273-.138.64097-.093.19824-.216.37445-.37.52864-.155.15418-.333.27533-.536.36343-.202.08811-.418.13216-.647.13216s-.443-.04405-.641-.13216c-.198-.0881-.375-.20925-.529-.36343-.154-.15419-.275-.3304-.363-.52864s-.132-.41189-.132-.64097c0-.22907.044-.44713.132-.65418s.209-.38767.363-.54185c.154-.154187.331-.275331.529-.363438.198-.088106.412-.132158.641-.132158s.445.044052.647.132158c.203.088107.381.209251.536.363438.154.15418.277.3348.37.54185.092.20705.138.42511.138.65418zm3.027 22.12331v-17.92066h1.401c.334 0 .546.16299.634.48898l.198 1.58591c.573-.69604 1.227-1.25551 1.963-1.67842s1.584-.63436 2.544-.63436c.766 0 1.462.14758 2.088.44273.626.29516 1.159.73128 1.599 1.30837.441.5771.78 1.29295 1.018 2.14755.238.8547.357 1.837.357 2.9472 0 .9868-.133 1.9052-.397 2.7555-.264.8502-.643 1.5859-1.136 2.207-.494.6212-1.1 1.1102-1.818 1.467s-1.526.5352-2.425.5352c-.828 0-1.535-.1365-2.121-.4097-.586-.2731-1.103-.6608-1.553-1.163v5.9207zm5.96-16.25546c-.766 0-1.438.17621-2.015.52863s-1.108.85022-1.593 1.49343v6.4757c.432.5815.906.9912 1.421 1.2291s1.09.3568 1.725.3568c1.242 0 2.198-.4449 2.867-1.3348.67-.8898 1.005-2.1585 1.005-3.8061 0-.8723-.077-1.6212-.231-2.2467-.155-.6256-.377-1.13879-.668-1.53968-.291-.40088-.647-.69383-1.07-.87885s-.903-.27753-1.441-.27753zm10.652-7.744498v19.466958h-2.352v-19.466958zm8.855 5.867838c.802 0 1.542.13436 2.22.40309.678.26872 1.264.65638 1.758 1.16299.493.50661.879 1.13216 1.156 1.87665.278.74449.416 1.59249.416 2.54409 0 .37-.039.6167-.119.7401-.079.1233-.229.185-.449.185h-8.907c.017.8458.132 1.5815.343 2.207.212.6256.502 1.1476.873 1.5661.37.4185.81.7313 1.321.9383.511.2071 1.084.3106 1.718.3106.59 0 1.099-.0683 1.527-.2048.427-.1366.795-.2842 1.103-.4428s.566-.3061.773-.4427.386-.2049.536-.2049c.193 0 .343.0749.449.2247l.661.8591c-.291.3524-.639.6585-1.044.9185-.406.2599-.84.4735-1.302.6409-.463.1674-.941.293-1.434.3767-.494.0837-.982.1255-1.467.1255-.925 0-1.778-.1564-2.557-.4691-.78-.3128-1.454-.771-2.022-1.3745-.569-.6035-1.011-1.3502-1.329-2.2401-.317-.8898-.475-1.9119-.475-3.0661 0-.9339.143-1.8061.429-2.6167.287-.81057.698-1.51321 1.236-2.10792.537-.59472 1.194-1.06168 1.969-1.40089s1.648-.50881 2.617-.50881zm.053 1.73128c-1.137 0-2.031.32819-2.683.98458s-1.057 1.56606-1.216 2.72906h7.282c0-.5462-.075-1.0462-.225-1.5-.15-.45373-.37-.8458-.661-1.17619-.29-.3304-.645-.58591-1.063-.76652-.419-.18062-.897-.27093-1.434-.27093z"/><path d="m156.933 7.26232c1.642 0 2.973-1.33131 2.973-2.97357 0-1.64225-1.331-2.97356-2.973-2.97356-1.643 0-2.974 1.33131-2.974 2.97356 0 1.64226 1.331 2.97357 2.974 2.97357z" stroke="#fff"/><path clip-rule="evenodd" d="m157.754 3.24093c-.516-.51612-1.353-.51612-1.869 0-.516.51611-.516 1.35289 0 1.869s1.353.51611 1.869 0" fill-rule="evenodd"/></g><path d="m157.754 3.24093c-.516-.51612-1.353-.51612-1.869 0-.516.51611-.516 1.35289 0 1.869s1.353.51611 1.869 0" stroke="#fff" stroke-linecap="round"/></svg>

<svg width="161" height="25" viewBox="0 0 161 25" fill="none" xmlns="http://www.w3.org/2000/svg">
<path d="M11.981 0.878976V2.96708H2.88849V9.58823H10.6594V11.6763H2.88849V19.8173H0.311401V0.878976H11.981ZM16.9237 6.42964V19.8173H14.5713V6.42964H16.9237ZM17.4524 2.22699C17.4524 2.45607 17.4061 2.66972 17.3136 2.86796C17.2211 3.0662 17.0977 3.24241 16.9436 3.3966C16.7894 3.55078 16.611 3.67193 16.4083 3.76003C16.2057 3.84814 15.9898 3.89219 15.7607 3.89219C15.5317 3.89219 15.318 3.84814 15.1198 3.76003C14.9215 3.67193 14.7453 3.55078 14.5911 3.3966C14.437 3.24241 14.3158 3.0662 14.2277 2.86796C14.1396 2.66972 14.0955 2.45607 14.0955 2.22699C14.0955 1.99792 14.1396 1.77986 14.2277 1.57281C14.3158 1.36576 14.437 1.18514 14.5911 1.03096C14.7453 0.876773 14.9215 0.755629 15.1198 0.667522C15.318 0.579416 15.5317 0.535364 15.7607 0.535364C15.9898 0.535364 16.2057 0.579416 16.4083 0.667522C16.611 0.755629 16.7894 0.876773 16.9436 1.03096C17.0977 1.18514 17.2211 1.36576 17.3136 1.57281C17.4061 1.77986 17.4524 1.99792 17.4524 2.22699ZM20.4788 19.8173V6.42964H21.8268C22.0823 6.42964 22.2585 6.47809 22.3555 6.57501C22.4524 6.67193 22.5184 6.83933 22.5537 7.07721L22.7123 9.16532C23.1704 8.23139 23.7365 7.50233 24.4105 6.97809C25.0845 6.45386 25.8753 6.19175 26.7828 6.19175C27.1528 6.19175 27.4876 6.2336 27.7872 6.3173C28.0867 6.401 28.3643 6.51774 28.6198 6.66752L28.3158 8.42523C28.2541 8.6455 28.1176 8.75563 27.9061 8.75563C27.7828 8.75563 27.5933 8.71378 27.3378 8.63008C27.0823 8.54638 26.7255 8.50453 26.2673 8.50453C25.448 8.50453 24.7629 8.74241 24.2123 9.21818C23.6616 9.69396 23.2013 10.3856 22.8312 11.2931V19.8173H20.4788ZM38.2013 8.63669C38.0955 8.83052 37.9325 8.92743 37.7123 8.92743C37.5801 8.92743 37.4303 8.87898 37.2629 8.78206C37.0955 8.68514 36.8907 8.57721 36.6484 8.45827C36.4061 8.33933 36.1176 8.2292 35.7828 8.12788C35.448 8.02655 35.0515 7.97589 34.5933 7.97589C34.1969 7.97589 33.84 8.02655 33.5229 8.12788C33.2057 8.2292 32.9347 8.36796 32.7101 8.54417C32.4854 8.72039 32.3136 8.92523 32.1947 9.15871C32.0757 9.39219 32.0162 9.64549 32.0162 9.91862C32.0162 10.2622 32.1154 10.5486 32.3136 10.7777C32.5118 11.0067 32.774 11.205 33.0999 11.3724C33.4259 11.5398 33.796 11.6873 34.2101 11.8151C34.6242 11.9429 35.0493 12.0794 35.4854 12.2248C35.9215 12.3702 36.3466 12.531 36.7607 12.7072C37.1748 12.8834 37.5449 13.1036 37.8709 13.368C38.1969 13.6323 38.459 13.9561 38.6572 14.3393C38.8555 14.7226 38.9546 15.1829 38.9546 15.7204C38.9546 16.3371 38.8444 16.9076 38.6242 17.4318C38.4039 17.9561 38.0779 18.4098 37.6462 18.7931C37.2145 19.1763 36.6859 19.4781 36.0603 19.6984C35.4347 19.9186 34.7123 20.0288 33.8929 20.0288C32.959 20.0288 32.1132 19.8768 31.3555 19.5728C30.5977 19.2688 29.9546 18.879 29.4259 18.4032L29.981 17.5045C30.0515 17.39 30.1352 17.3019 30.2321 17.2402C30.329 17.1785 30.4568 17.1477 30.6154 17.1477C30.774 17.1477 30.9414 17.2094 31.1176 17.3327C31.2938 17.4561 31.5074 17.5926 31.7585 17.7424C32.0096 17.8922 32.3136 18.0288 32.6704 18.1521C33.0273 18.2755 33.4744 18.3371 34.0118 18.3371C34.47 18.3371 34.8709 18.2777 35.2145 18.1587C35.5581 18.0398 35.8444 17.879 36.0735 17.6763C36.3026 17.4737 36.4722 17.2402 36.5823 16.9759C36.6925 16.7116 36.7475 16.4296 36.7475 16.1301C36.7475 15.76 36.6484 15.4539 36.4502 15.2116C36.2519 14.9693 35.9898 14.7622 35.6638 14.5904C35.3378 14.4186 34.9656 14.2688 34.5471 14.1411C34.1286 14.0133 33.7013 13.879 33.2651 13.738C32.829 13.597 32.4017 13.4362 31.9832 13.2556C31.5647 13.075 31.1925 12.8481 30.8665 12.575C30.5405 12.3019 30.2784 11.9649 30.0801 11.564C29.8819 11.1631 29.7828 10.6763 29.7828 10.1036C29.7828 9.59263 29.8885 9.10145 30.0999 8.63008C30.3114 8.15871 30.6198 7.74462 31.0251 7.38779C31.4303 7.03096 31.9281 6.74682 32.5185 6.53536C33.1088 6.32391 33.7828 6.21818 34.5405 6.21818C35.4215 6.21818 36.2123 6.35695 36.9127 6.63448C37.6132 6.91202 38.2189 7.29307 38.7299 7.77765L38.2013 8.63669ZM45.47 20.0288C44.4127 20.0288 43.6 19.7336 43.0317 19.1433C42.4634 18.553 42.1792 17.7028 42.1792 16.5926V8.3988H40.5669C40.4259 8.3988 40.307 8.35695 40.2101 8.27325C40.1132 8.18955 40.0647 8.05959 40.0647 7.88338V6.94506L42.2585 6.66752L42.8004 2.53096C42.818 2.3988 42.8753 2.29087 42.9722 2.20717C43.0691 2.12347 43.1925 2.08162 43.3422 2.08162H44.5317V6.69395H48.3643V8.3988H44.5317V16.434C44.5317 16.9979 44.6682 17.4164 44.9414 17.6895C45.2145 17.9627 45.5669 18.0992 45.9986 18.0992C46.2453 18.0992 46.459 18.0662 46.6396 18.0001C46.8202 17.934 46.9766 17.8614 47.1088 17.7821C47.2409 17.7028 47.3533 17.6301 47.4458 17.564C47.5383 17.4979 47.6198 17.4649 47.6903 17.4649C47.8136 17.4649 47.9237 17.5398 48.0207 17.6895L48.7079 18.8129C48.3026 19.1918 47.8136 19.4891 47.2409 19.705C46.6682 19.9208 46.0779 20.0288 45.47 20.0288ZM58.3687 12.7336V19.8173H55.818V0.878976H61.4083C62.6066 0.878976 63.6484 1.01774 64.5339 1.29528C65.4193 1.57281 66.1528 1.96708 66.7343 2.4781C67.3158 2.98911 67.7497 3.60584 68.0361 4.32832C68.3224 5.05079 68.4656 5.85695 68.4656 6.74682C68.4656 7.62788 68.3114 8.43404 68.003 9.16532C67.6947 9.8966 67.2431 10.5266 66.6484 11.0552C66.0537 11.5838 65.3158 11.9957 64.4347 12.2909C63.5537 12.586 62.5449 12.7336 61.4083 12.7336H58.3687ZM58.3687 10.6984H61.4083C62.1396 10.6984 62.785 10.6014 63.3444 10.4076C63.9039 10.2138 64.3731 9.94285 64.7519 9.59483C65.1308 9.24682 65.4171 8.83052 65.611 8.34594C65.8048 7.86135 65.9017 7.32832 65.9017 6.74682C65.9017 5.53976 65.5295 4.59704 64.785 3.91862C64.0405 3.24021 62.9149 2.901 61.4083 2.901H58.3687V10.6984ZM70.7387 19.8173V6.42964H72.0867C72.3422 6.42964 72.5184 6.47809 72.6154 6.57501C72.7123 6.67193 72.7784 6.83933 72.8136 7.07721L72.9722 9.16532C73.4303 8.23139 73.9964 7.50233 74.6704 6.97809C75.3444 6.45386 76.1352 6.19175 77.0427 6.19175C77.4127 6.19175 77.7475 6.2336 78.0471 6.3173C78.3466 6.401 78.6242 6.51774 78.8797 6.66752L78.5757 8.42523C78.514 8.6455 78.3775 8.75563 78.166 8.75563C78.0427 8.75563 77.8533 8.71378 77.5977 8.63008C77.3422 8.54638 76.9854 8.50453 76.5273 8.50453C75.7079 8.50453 75.0229 8.74241 74.4722 9.21818C73.9215 9.69396 73.4612 10.3856 73.0911 11.2931V19.8173H70.7387ZM83.4127 6.42964V19.8173H81.0603V6.42964H83.4127ZM83.9414 2.22699C83.9414 2.45607 83.8951 2.66972 83.8026 2.86796C83.7101 3.0662 83.5867 3.24241 83.4325 3.3966C83.2784 3.55078 83.1 3.67193 82.8973 3.76003C82.6947 3.84814 82.4788 3.89219 82.2497 3.89219C82.0207 3.89219 81.807 3.84814 81.6088 3.76003C81.4105 3.67193 81.2343 3.55078 81.0801 3.3966C80.9259 3.24241 80.8048 3.0662 80.7167 2.86796C80.6286 2.66972 80.5845 2.45607 80.5845 2.22699C80.5845 1.99792 80.6286 1.77986 80.7167 1.57281C80.8048 1.36576 80.9259 1.18514 81.0801 1.03096C81.2343 0.876773 81.4105 0.755629 81.6088 0.667522C81.807 0.579416 82.0207 0.535364 82.2497 0.535364C82.4788 0.535364 82.6947 0.579416 82.8973 0.667522C83.1 0.755629 83.2784 0.876773 83.4325 1.03096C83.5867 1.18514 83.7101 1.36576 83.8026 1.57281C83.8951 1.77986 83.9414 1.99792 83.9414 2.22699ZM86.9678 19.8173V6.42964H88.3687C88.7035 6.42964 88.9149 6.59263 89.003 6.91862L89.1881 8.37237C89.7696 7.72919 90.4193 7.20937 91.1374 6.8129C91.8555 6.41642 92.6858 6.21818 93.6286 6.21818C94.3599 6.21818 95.0052 6.33933 95.5647 6.58162C96.1242 6.82391 96.5911 7.16752 96.9656 7.61246C97.34 8.05739 97.6242 8.59263 97.818 9.21818C98.0118 9.84374 98.1088 10.5354 98.1088 11.2931V19.8173H95.7563V11.2931C95.7563 10.2799 95.5251 9.49352 95.0625 8.93404C94.5999 8.37457 93.8929 8.09484 92.9414 8.09484C92.2453 8.09484 91.5955 8.26223 90.992 8.59704C90.3885 8.93184 89.8312 9.38558 89.3202 9.95827V19.8173H86.9678ZM110.201 8.80849C110.131 8.90541 110.06 8.9803 109.99 9.03316C109.919 9.08603 109.818 9.11246 109.686 9.11246C109.554 9.11246 109.411 9.05739 109.256 8.94726C109.102 8.83713 108.906 8.71598 108.668 8.58382C108.43 8.45166 108.142 8.33052 107.803 8.22039C107.463 8.11025 107.047 8.05519 106.554 8.05519C105.902 8.05519 105.325 8.17193 104.822 8.40541C104.32 8.63889 103.9 8.97589 103.56 9.41642C103.221 9.85695 102.966 10.39 102.794 11.0155C102.622 11.6411 102.536 12.3415 102.536 13.1169C102.536 13.9274 102.629 14.6477 102.814 15.2777C102.999 15.9076 103.259 16.4362 103.593 16.8636C103.928 17.2909 104.336 17.6169 104.816 17.8415C105.296 18.0662 105.836 18.1785 106.435 18.1785C107.007 18.1785 107.479 18.1103 107.849 17.9737C108.219 17.8371 108.527 17.6851 108.774 17.5177C109.021 17.3503 109.223 17.1984 109.382 17.0618C109.54 16.9252 109.699 16.8569 109.858 16.8569C110.06 16.8569 110.21 16.9318 110.307 17.0816L110.968 17.9407C110.386 18.6543 109.659 19.1763 108.787 19.5067C107.915 19.8371 106.994 20.0023 106.025 20.0023C105.188 20.0023 104.411 19.8481 103.692 19.5398C102.974 19.2314 102.351 18.7843 101.822 18.1984C101.294 17.6125 100.877 16.8922 100.574 16.0376C100.27 15.1829 100.118 14.2094 100.118 13.1169C100.118 12.1213 100.256 11.2006 100.534 10.3547C100.811 9.50893 101.217 8.77986 101.75 8.16752C102.283 7.55518 102.941 7.07722 103.725 6.7336C104.51 6.38999 105.408 6.21818 106.422 6.21818C107.355 6.21818 108.184 6.37016 108.906 6.67413C109.629 6.9781 110.267 7.40761 110.822 7.96268L110.201 8.80849ZM115.435 6.42964V19.8173H113.082V6.42964H115.435ZM115.963 2.22699C115.963 2.45607 115.917 2.66972 115.825 2.86796C115.732 3.0662 115.609 3.24241 115.455 3.3966C115.3 3.55078 115.122 3.67193 114.919 3.76003C114.717 3.84814 114.501 3.89219 114.272 3.89219C114.043 3.89219 113.829 3.84814 113.631 3.76003C113.433 3.67193 113.256 3.55078 113.102 3.3966C112.948 3.24241 112.827 3.0662 112.739 2.86796C112.651 2.66972 112.607 2.45607 112.607 2.22699C112.607 1.99792 112.651 1.77986 112.739 1.57281C112.827 1.36576 112.948 1.18514 113.102 1.03096C113.256 0.876773 113.433 0.755629 113.631 0.667522C113.829 0.579416 114.043 0.535364 114.272 0.535364C114.501 0.535364 114.717 0.579416 114.919 0.667522C115.122 0.755629 115.3 0.876773 115.455 1.03096C115.609 1.18514 115.732 1.36576 115.825 1.57281C115.917 1.77986 115.963 1.99792 115.963 2.22699ZM118.99 24.3503V6.42964H120.391C120.725 6.42964 120.937 6.59263 121.025 6.91862L121.223 8.50453C121.796 7.80849 122.45 7.24902 123.186 6.82611C123.922 6.4032 124.77 6.19175 125.73 6.19175C126.496 6.19175 127.192 6.33933 127.818 6.63448C128.444 6.92964 128.977 7.36576 129.417 7.94285C129.858 8.51995 130.197 9.2358 130.435 10.0904C130.673 10.9451 130.792 11.9274 130.792 13.0376C130.792 14.0244 130.659 14.9428 130.395 15.7931C130.131 16.6433 129.752 17.379 129.259 18.0001C128.765 18.6213 128.159 19.1103 127.441 19.4671C126.723 19.8239 125.915 20.0023 125.016 20.0023C124.188 20.0023 123.481 19.8658 122.895 19.5926C122.309 19.3195 121.792 18.9318 121.342 18.4296V24.3503H118.99ZM124.95 8.09484C124.184 8.09484 123.512 8.27105 122.935 8.62347C122.358 8.97589 121.827 9.47369 121.342 10.1169V16.5926C121.774 17.1741 122.248 17.5838 122.763 17.8217C123.278 18.0596 123.853 18.1785 124.488 18.1785C125.73 18.1785 126.686 17.7336 127.355 16.8437C128.025 15.9539 128.36 14.6852 128.36 13.0376C128.36 12.1653 128.283 11.4164 128.129 10.7909C127.974 10.1653 127.752 9.65211 127.461 9.25122C127.17 8.85034 126.814 8.55739 126.391 8.37237C125.968 8.18735 125.488 8.09484 124.95 8.09484ZM135.602 0.350342V19.8173H133.25V0.350342H135.602ZM144.457 6.21818C145.259 6.21818 145.999 6.35254 146.677 6.62127C147.355 6.88999 147.941 7.27765 148.435 7.78426C148.928 8.29087 149.314 8.91642 149.591 9.66091C149.869 10.4054 150.007 11.2534 150.007 12.205C150.007 12.575 149.968 12.8217 149.888 12.9451C149.809 13.0684 149.659 13.1301 149.439 13.1301H140.532C140.549 13.9759 140.664 14.7116 140.875 15.3371C141.087 15.9627 141.377 16.4847 141.748 16.9032C142.118 17.3217 142.558 17.6345 143.069 17.8415C143.58 18.0486 144.153 18.1521 144.787 18.1521C145.377 18.1521 145.886 18.0838 146.314 17.9473C146.741 17.8107 147.109 17.6631 147.417 17.5045C147.725 17.3459 147.983 17.1984 148.19 17.0618C148.397 16.9252 148.576 16.8569 148.726 16.8569C148.919 16.8569 149.069 16.9318 149.175 17.0816L149.836 17.9407C149.545 18.2931 149.197 18.5992 148.792 18.8592C148.386 19.1191 147.952 19.3327 147.49 19.5001C147.027 19.6675 146.549 19.7931 146.056 19.8768C145.562 19.9605 145.074 20.0023 144.589 20.0023C143.664 20.0023 142.811 19.8459 142.032 19.5332C141.252 19.2204 140.578 18.7622 140.01 18.1587C139.441 17.5552 138.999 16.8085 138.681 15.9186C138.364 15.0288 138.206 14.0067 138.206 12.8525C138.206 11.9186 138.349 11.0464 138.635 10.2358C138.922 9.42523 139.333 8.72259 139.871 8.12788C140.408 7.53316 141.065 7.0662 141.84 6.72699C142.615 6.38778 143.488 6.21818 144.457 6.21818ZM144.51 7.94946C143.373 7.94946 142.479 8.27765 141.827 8.93404C141.175 9.59043 140.77 10.5001 140.611 11.6631H147.893C147.893 11.1169 147.818 10.6169 147.668 10.1631C147.518 9.70937 147.298 9.3173 147.007 8.98691C146.717 8.65651 146.362 8.401 145.944 8.22039C145.525 8.03977 145.047 7.94946 144.51 7.94946Z" fill="white"/>
<path d="M156.933 7.26232C158.575 7.26232 159.906 5.93101 159.906 4.28875C159.906 2.6465 158.575 1.31519 156.933 1.31519C155.29 1.31519 153.959 2.6465 153.959 4.28875C153.959 5.93101 155.29 7.26232 156.933 7.26232Z" fill="white" stroke="white"/>
<path fill-rule="evenodd" clip-rule="evenodd" d="M157.754 3.24093C157.238 2.72481 156.401 2.72481 155.885 3.24093C155.369 3.75704 155.369 4.59382 155.885 5.10993C156.401 5.62604 157.238 5.62604 157.754 5.10993" fill="white"/>
<path d="M157.754 3.24093C157.238 2.72481 156.401 2.72481 155.885 3.24093C155.369 3.75704 155.369 4.59382 155.885 5.10993C156.401 5.62604 157.238 5.62604 157.754 5.10993" stroke="white" stroke-linecap="round"/>
</svg>
